images/logo-home.svg

<?xml version="1.0" encoding="utf-8"?>
<!-- Generator: Adobe Illustrator 16.0.0, SVG Export Plug-In . SVG Version: 6.00 Build 0)  -->
<!DOCTYPE svg PUBLIC "-//W3C//DTD SVG 1.1//EN" "http://www.w3.org/Graphics/SVG/1.1/DTD/svg11.dtd">
<svg enable-background="new 0 0 163.2 22.1" version="1.1" viewBox="0 0 163.2 22.1" xml:space="preserve" xmlns="http://www.w3.org/2000/svg">
	<g fill="none">
		<path d="m48.3 9.4c0-3.3-2.2-4.898-5.5-4.898h-6.8v14.1h3.3v-4.4h2.2c1.3 1.5 2.5 2.898 3.7 4.398h4c-1.3-1.5-2.7-3.2-4-4.7 1.964-0.583 3.255-2.457 3.1-4.5zm-3.3-0.1c0.01 0.117 0.01 0.234 0 0.352-0.097 1.117-1.082 1.945-2.2 1.85v-0.102h-3.5v-4.4h3.5c0.179-0.021 0.36-0.018 0.538 0.012 1.09 0.173 1.835 1.197 1.662 2.288z"/>
		<path d="m67.3 13.1c0 2.7-2.2 3.102-3.5 3.102s-3.5-0.4-3.5-3.102v-8.6h-3.3v8.6c0 3.602 2.7 5.8 6.8 5.8s6.8-2.198 6.8-5.8v-8.6h-3.3v8.6z"/>
		<path d="m89.4 11.2c1.212-0.39 2.026-1.527 2-2.802 0-3-2-3.898-5-3.898h-6.4v14.1h6.6c2.8 0 5.4-0.7 5.4-4.1 0.045-1.585-1.048-2.974-2.6-3.3zm-6.103-4.1h3.103c0.054-7e-3 0.108-0.01 0.163-0.011 0.787-7e-3 1.43 0.624 1.437 1.411 0 1-0.4 1.6-1.602 1.6h-3.102v-3zm3.303 8.9h-3.301v-3.2h3.201c1.398 0 2.1 0.4 2.1 1.6 0 1.1-0.6 1.6-2 1.6z"/>
		<path d="m112.8 9.4c0-3.3-2.199-4.898-5.5-4.898h-6.799v14.1h3.299v-4.4h2.201c1.299 1.5 2.5 2.898 3.699 4.398h4c-1.301-1.5-2.699-3.2-4-4.7 1.966-0.583 3.257-2.457 3.1-4.5zm-3.299-0.1c0.01 0.117 0.01 0.234 0 0.352-0.099 1.117-1.082 1.945-2.201 1.85v-0.102h-3.5v-4.4h3.5c0.18-0.021 0.359-0.018 0.537 0.012 1.092 0.173 1.836 1.197 1.664 2.288z"/>
		<path d="m131.9 13.1c0 2.7-2.2 3.102-3.5 3.102s-3.5-0.4-3.5-3.102v-8.6h-3.3v8.6c0 3.602 2.699 5.8 6.8 5.8s6.8-2.198 6.8-5.8v-8.6h-3.3v8.6z"/>
		<polygon points="159.2 4 153.2 13.1 147.3 4 143.2 18.7 146.6 18.7 148.5 11.5 153.2 19.1 157.9 11.5 159.8 18.7 163.2 18.7"/>
		<path d="m19.3 0h-16.5c-1.532 0.032-2.767 1.268-2.8 2.8v16.5c0.033 1.532 1.268 2.768 2.8 2.8h16.5c1.533-0.032 2.767-1.268 2.8-2.8v-16.5c0-1.547-1.254-2.8-2.8-2.8zm1.8 2.8v16.5c4e-3 0.99-0.796 1.796-1.786 1.8h-0.014-16.5c-0.99 4e-3 -1.796-0.796-1.8-1.786v-0.014-16.5c-4e-3 -0.99 0.796-1.796 1.786-1.8h0.014 16.5c0.99-4e-3 1.796 0.796 1.8 1.786v0.014z"/>
		<path d="M11.6,10.6l8,7.9V3.3c-0.004-0.186-0.075-0.363-0.2-0.5L11.6,10.6z"/>
		<path d="m2.7 19.4c0.137 0.126 0.314 0.196 0.5 0.2h15.2l-7.9-8-7.8 7.8z"/>
		<path d="m10.7 10l-7.4-7.4c-0.378-9e-3 -0.691 0.29-0.7 0.668v0.032l7.4 7.4 0.7-0.7z"/>
	</g>
</svg>

<?xml version="1.0" encoding="utf-8"?>
<!-- Generator: Adobe Illustrator 16.0.0, SVG Export Plug-In . SVG Version: 6.00 Build 0)  -->
<!DOCTYPE svg PUBLIC "-//W3C//DTD SVG 1.1//EN" "http://www.w3.org/Graphics/SVG/1.1/DTD/svg11.dtd">
<svg version="1.1" id="Layer_1" xmlns="http://www.w3.org/2000/svg" xmlns:xlink="http://www.w3.org/1999/xlink" x="0px" y="0px"
	 width="163.2px" height="22.1px" viewBox="0 0 163.2 22.1" enable-background="new 0 0 163.2 22.1" xml:space="preserve">
<g>
	<path fill="none" d="M48.3,9.4c0-3.3-2.2-4.899-5.5-4.899H36v14.1h3.3V14.2h2.2c1.3,1.5,2.5,2.899,3.7,4.399h4
		c-1.3-1.5-2.7-3.2-4-4.7C47.164,13.317,48.455,11.443,48.3,9.4z M45,9.3c0.01,0.117,0.01,0.234,0,0.352
		c-0.097,1.117-1.082,1.945-2.2,1.849V11.4h-3.5V7h3.5c0.179-0.021,0.36-0.017,0.538,0.012C44.428,7.185,45.173,8.209,45,9.3z"/>
	<path fill="none" d="M67.3,13.1c0,2.7-2.2,3.101-3.5,3.101c-1.3,0-3.5-0.4-3.5-3.101V4.5H57v8.6c0,3.601,2.7,5.8,6.8,5.8
		c4.1,0,6.8-2.199,6.8-5.8V4.5h-3.3V13.1z"/>
	<path fill="none" d="M89.4,11.2c1.212-0.389,2.026-1.527,2-2.801c0-3-2-3.899-5-3.899H80v14.1h6.6c2.8,0,5.4-0.7,5.4-4.1
		C92.046,12.915,90.952,11.526,89.4,11.2z M83.299,7.1H86.4c0.054-0.007,0.108-0.01,0.163-0.011C87.35,7.082,87.993,7.713,88,8.5
		c0,1-0.4,1.6-1.601,1.6h-3.101V7.1z M86.6,16h-3.301v-3.2H86.5c1.399,0,2.1,0.4,2.1,1.6C88.6,15.5,88,16,86.6,16z"/>
	<path fill="none" d="M112.799,9.4c0-3.3-2.199-4.899-5.5-4.899H100.5v14.1h3.299V14.2H106c1.299,1.5,2.5,2.899,3.699,4.399h4
		c-1.3-1.5-2.699-3.2-4-4.7C111.665,13.317,112.956,11.443,112.799,9.4z M109.5,9.3c0.01,0.117,0.01,0.234,0,0.352
		c-0.098,1.117-1.082,1.945-2.201,1.849V11.4h-3.5V7h3.5c0.18-0.021,0.36-0.017,0.538,0.012C108.928,7.185,109.672,8.209,109.5,9.3z
		"/>
	<path fill="none" d="M131.9,13.1c0,2.7-2.2,3.101-3.5,3.101s-3.5-0.4-3.5-3.101V4.5h-3.3v8.6c0,3.601,2.699,5.8,6.8,5.8
		s6.8-2.199,6.8-5.8V4.5h-3.3V13.1z"/>
	<polygon fill="none" points="159.2,4 153.2,13.1 147.299,4 143.2,18.7 146.6,18.7 148.5,11.5 153.2,19.1 157.9,11.5 159.799,18.7 
		163.2,18.7 	"/>
	<path fill="none" d="M19.3,0H2.8C1.268,0.032,0.033,1.268,0,2.8v16.5c0.033,1.532,1.268,2.768,2.8,2.8h16.5
		c1.533-0.032,2.767-1.268,2.8-2.8V2.8C22.1,1.253,20.846,0,19.3,0z M21.1,2.8v16.5c0.004,0.99-0.796,1.796-1.786,1.8
		c-0.004,0-0.009,0-0.014,0H2.8c-0.99,0.004-1.796-0.796-1.8-1.786c0-0.004,0-0.009,0-0.014V2.8C0.996,1.81,1.796,1.004,2.786,1
		C2.791,1,2.795,1,2.8,1h16.5c0.99-0.004,1.796,0.796,1.8,1.786C21.1,2.79,21.1,2.795,21.1,2.8z"/>
	<path fill="none" d="M11.6,10.6l8,7.9V3.3c-0.004-0.186-0.075-0.363-0.2-0.5L11.6,10.6z"/>
	<path fill="none" d="M2.7,19.4c0.137,0.126,0.314,0.196,0.5,0.2h15.2l-7.9-8L2.7,19.4z"/>
	<path fill="none" d="M10.7,10L3.3,2.6C2.922,2.591,2.609,2.89,2.6,3.268c0,0.011,0,0.021,0,0.032l7.4,7.4L10.7,10z"/>
</g>
</svg>
